dist/img/partners/partner_3.svg

<svg width="131" height="65" viewBox="0 0 131 65" fill="none" xmlns="http://www.w3.org/2000/svg">
<g clip-path="url(#clip0_306_3408)">
<path d="M93.5446 19.4833H92.372H91.5462H91.4471C88.689 19.4833 85.4271 19.6324 81.6037 19.4833H80.9926C80.1668 19.4833 78.4161 19.326 78.3914 19.326L77.1692 19.2184C75.5176 19.0776 73.8165 18.8623 72.008 18.556L70.6702 18.3241L69.9435 18.2165C69.481 18.1254 67.5322 17.6948 67.0945 17.5872C66.6568 17.4795 66.3348 17.405 65.9467 17.3056C65.253 17.1317 64.5511 16.933 63.8326 16.726L62.8417 16.4279C62.1728 16.2375 61.4956 16.0139 60.802 15.7821L59.5633 15.3598C58.9605 15.1528 58.3576 14.9292 57.7383 14.6974L71.3556 4.76105L93.5446 19.4833Z" fill="#C6EBF4"/>
<path d="M38.9048 61.6215C36.7027 61.6215 35.1007 60.9591 34.0987 59.6342C33.0967 58.3094 32.5847 56.22 32.5627 53.3661V49.2259C32.5627 46.3113 33.0747 44.1998 34.0987 42.8915C35.1227 41.5833 36.7578 40.9291 39.0039 40.9291C40.42 40.8501 41.8225 41.2431 42.9925 42.047C43.4461 42.3516 43.8256 42.7546 44.1029 43.2261C44.3802 43.6977 44.5482 44.2257 44.5945 44.7712C44.6039 44.8172 44.6286 44.8587 44.6646 44.8888C44.7007 44.9189 44.7458 44.9358 44.7927 44.9368H48.228C48.2828 44.9368 48.3353 44.915 48.374 44.8761C48.4127 44.8373 48.4345 44.7847 48.4345 44.7298C48.4206 43.0752 47.7731 41.4892 46.626 40.2998C45.0074 38.4782 42.3979 37.5673 38.7975 37.5673C35.4613 37.5673 32.9343 38.5444 31.2167 40.4986C29.499 42.4527 28.643 45.3673 28.6485 49.2425V54.161C28.6485 57.7491 29.5073 60.4512 31.2249 62.2673C32.9426 64.0835 35.4723 64.9943 38.814 64.9998C42.8438 64.9998 45.6213 63.8572 47.1462 61.5718C47.6016 60.9235 47.9604 60.2122 48.2115 59.4603C48.4062 58.7003 48.5034 57.9183 48.5005 57.1336C48.5006 57.0801 48.48 57.0287 48.443 56.9901C48.4061 56.9515 48.3556 56.9287 48.3023 56.9266H44.801C44.7541 56.9275 44.7089 56.9444 44.6729 56.9745C44.6369 57.0046 44.6122 57.0461 44.6028 57.0922C44.066 59.8578 42.2162 61.6215 38.9048 61.6215Z" fill="#25314C"/>
<path d="M107.264 41.103C107.316 41.103 107.367 41.0821 107.404 41.0448C107.441 41.0075 107.462 40.957 107.462 40.9043V37.7661C107.463 37.7397 107.459 37.7133 107.449 37.6886C107.44 37.664 107.425 37.6416 107.407 37.6229C107.388 37.6042 107.366 37.5896 107.341 37.5801C107.317 37.5705 107.29 37.5662 107.264 37.5673H101.483V31.1501C101.483 31.0974 101.463 31.0469 101.425 31.0096C101.388 30.9724 101.338 30.9514 101.285 30.9514L97.7673 32.0278C97.7148 32.0278 97.6643 32.0488 97.6272 32.0861C97.59 32.1233 97.5691 32.1739 97.5691 32.2266V37.5673H93.7292C93.6766 37.5673 93.6262 37.5883 93.5891 37.6255C93.5519 37.6628 93.531 37.7134 93.531 37.7661V40.9043C93.531 40.957 93.5519 41.0075 93.5891 41.0448C93.6262 41.0821 93.6766 41.103 93.7292 41.103H97.5691V57.6635C97.5691 59.9489 98.0811 61.6215 99.1051 62.6813C100.129 63.7412 101.778 64.2822 104.052 64.3043H107.272C107.325 64.3043 107.375 64.2833 107.412 64.2461C107.45 64.2088 107.47 64.1583 107.47 64.1056V61.0253C107.47 60.9726 107.45 60.922 107.412 60.8848C107.375 60.8475 107.325 60.8266 107.272 60.8266H104.398C103.992 60.8715 103.581 60.8199 103.198 60.6761C102.815 60.5322 102.471 60.3002 102.194 59.9985C101.671 59.1244 101.437 58.1074 101.525 57.0922V41.103H107.264Z" fill="#25314C"/>
<path d="M72.0191 44.7132C72.0013 44.3735 71.9431 44.0371 71.8457 43.7113C71.5028 42.5337 70.9208 41.4399 70.1363 40.4986C68.4186 38.5444 65.8917 37.5673 62.5555 37.5673C58.9551 37.5673 56.3428 38.4782 54.7187 40.2998C53.62 41.4983 53.0279 43.0775 53.0672 44.7049C53.0672 44.7598 53.0889 44.8125 53.1276 44.8513C53.1663 44.8901 53.2189 44.9119 53.2736 44.9119H56.7089C56.757 44.9106 56.8031 44.8925 56.8392 44.8608C56.8754 44.829 56.8994 44.7856 56.9071 44.738C56.9299 44.2001 57.0759 43.6746 57.3336 43.2022C57.5913 42.7298 57.954 42.3232 58.3935 42.0138C59.5674 41.2116 60.9719 40.8188 62.3904 40.896C64.6365 40.896 66.2716 41.5501 67.2956 42.8584C67.7672 43.4808 68.0535 44.2243 68.1214 45.003C68.1214 45.2763 68.1214 45.5578 68.1214 45.831V48.7622C67.0974 48.6298 66.0734 48.5304 65.0494 48.4642C64.0254 48.3979 63.1831 48.3648 62.5225 48.3648C58.9165 48.3648 56.2712 49.0438 54.5866 50.4017C52.902 51.7597 52.0597 53.9153 52.0597 56.8686C52.0597 59.6287 52.8607 61.6408 54.4627 62.9049C55.8748 63.9979 58.8394 64.561 61.8288 64.7266C62.617 64.761 63.4067 64.7333 64.1906 64.6438C66.7099 64.4247 69.1924 63.8935 71.5814 63.0622C71.709 63.0242 71.8214 62.947 71.9029 62.8416C71.9843 62.7361 72.0308 62.6077 72.0356 62.4743V45.7648C72.0604 45.3839 72.0439 45.0279 72.0191 44.7132ZM58.3192 60.7189C57.8911 60.5758 57.4997 60.3398 57.1729 60.0279C56.8461 59.7159 56.5918 59.3355 56.4281 58.9138C56.193 58.2527 56.081 57.5538 56.0978 56.8521C56.0978 54.9918 56.585 53.6642 57.5595 52.8692C58.5339 52.0743 60.2956 51.6769 62.8445 51.6769C63.3978 51.6769 66.6927 51.9584 67.9232 52.0992C67.9845 52.1054 68.0413 52.1342 68.0825 52.1802C68.1238 52.2261 68.1464 52.2858 68.1461 52.3476V60.131C68.146 60.1853 68.1294 60.2381 68.0984 60.2826C68.0674 60.327 68.0235 60.3608 67.9727 60.3794C64.8792 61.5516 61.487 61.6708 58.3192 60.7189Z" fill="#25314C"/>
<path d="M130.584 44.7132C130.559 44.384 130.495 44.0589 130.394 43.7444C130.051 42.5668 129.47 41.473 128.685 40.5317C126.967 38.5775 124.44 37.6005 121.104 37.6005C117.493 37.6005 114.881 38.5113 113.267 40.3329C112.169 41.5314 111.577 43.1106 111.616 44.738C111.616 44.7929 111.638 44.8456 111.676 44.8844C111.715 44.9232 111.768 44.945 111.822 44.945H115.258C115.306 44.9437 115.352 44.9256 115.388 44.8939C115.424 44.8622 115.448 44.8187 115.456 44.7712C115.479 44.2332 115.625 43.7077 115.882 43.2353C116.14 42.7629 116.503 42.3563 116.942 42.047C118.116 41.2436 119.52 40.8507 120.939 40.9291C123.185 40.9291 124.82 41.5833 125.844 42.8915C126.32 43.5119 126.606 44.2565 126.67 45.0361C126.67 45.3094 126.711 45.5909 126.711 45.8642V48.7954C125.687 48.6629 124.663 48.5635 123.639 48.4973C122.615 48.431 121.765 48.3979 121.104 48.3979C117.504 48.3979 114.861 49.0769 113.177 50.4349C111.492 51.7928 110.652 53.9484 110.658 56.9017C110.658 59.6618 111.459 61.6739 113.061 62.938C114.473 64.031 117.438 64.5941 120.427 64.7597C121.215 64.7942 122.005 64.7665 122.789 64.6769C125.308 64.4578 127.791 63.9266 130.18 63.0954C130.307 63.0573 130.42 62.9802 130.501 62.8747C130.583 62.7692 130.629 62.6408 130.634 62.5075V45.7648C130.626 45.3839 130.609 45.0278 130.584 44.7132ZM116.884 60.7189C116.456 60.5758 116.065 60.3398 115.738 60.0279C115.411 59.7159 115.157 59.3355 114.993 58.9138C114.758 58.2527 114.646 57.5538 114.663 56.8521C114.663 54.9918 115.15 53.6642 116.125 52.8692C117.099 52.0743 118.861 51.6769 121.41 51.6769C121.963 51.6769 125.258 51.9584 126.488 52.0992C126.549 52.1071 126.605 52.1365 126.646 52.182C126.687 52.2276 126.71 52.2863 126.711 52.3476V60.131C126.709 60.1847 126.692 60.2366 126.661 60.2806C126.63 60.3247 126.587 60.3589 126.538 60.3794C123.444 61.5516 120.052 61.6708 116.884 60.7189Z" fill="#25314C"/>
<path d="M90.1947 41.401C90.2436 41.3989 90.2898 41.3779 90.3236 41.3424C90.3575 41.3069 90.3764 41.2597 90.3763 41.2106V37.7577C90.3763 37.0953 85.8427 38.1138 85.4216 38.2462C84.4694 38.4618 83.575 38.8812 82.7996 39.4758C82.0242 40.0703 81.3862 40.8259 80.9293 41.6908V38.5526C80.9293 38.5243 80.9237 38.4964 80.9129 38.4702C80.9021 38.4441 80.8863 38.4204 80.8664 38.4004C80.8464 38.3804 80.8228 38.3645 80.7967 38.3537C80.7707 38.3429 80.7428 38.3373 80.7146 38.3373H77.304C77.2471 38.3373 77.1925 38.36 77.1522 38.4004C77.112 38.4408 77.0893 38.4955 77.0893 38.5526V64.1055C77.0893 64.1634 77.1116 64.219 77.1517 64.2607C77.1917 64.3024 77.2463 64.3269 77.304 64.3291H80.8219C80.8796 64.3269 80.9342 64.3024 80.9743 64.2607C81.0143 64.219 81.0367 64.1634 81.0366 64.1055V49.7889C80.9993 48.1067 81.3379 46.4375 82.0276 44.9036C82.4609 43.9325 83.1524 43.0998 84.0264 42.4966C84.9003 41.8934 85.923 41.543 86.9823 41.4838C87.7465 41.3875 88.5161 41.3405 89.2863 41.3431L90.1947 41.401Z" fill="#25314C"/>
<path d="M91.5887 21.0484C38.9031 37.2611 0 21.0484 0 21.0484L28.9853 0C39.9849 8.08981 49.5476 13.1076 57.7394 16.2045C58.3588 16.4363 58.9616 16.6599 59.5644 16.8669L60.8031 17.2892C61.4968 17.521 62.1739 17.7446 62.8428 17.935L63.8338 18.2331C64.5522 18.4401 65.2542 18.6389 65.9478 18.8127C66.3359 18.9121 66.7158 19.0115 67.0957 19.0943C67.4755 19.1771 70.4566 19.8229 70.7126 19.8726L72.0504 20.1045C73.8589 20.4108 75.5766 20.6261 77.2116 20.7669L78.4338 20.8745C78.4338 20.8745 80.2093 20.9987 81.035 21.0318H81.6461C85.4696 21.1726 88.7314 21.0318 91.4896 21.0318L91.5887 21.0484Z" fill="#1B98ED"/>
</g>
<defs>
<clipPath id="clip0_306_3408">
<rect width="131" height="65" fill="white"/>
</clipPath>
</defs>
</svg>

<svg width="131" height="65" viewBox="0 0 131 65" fill="none" xmlns="http://www.w3.org/2000/svg"><g clip-path="url(#clip0_306_3408)"><path d="M93.545 19.483h-2.098c-2.758 0-6.02.15-9.843 0h-.611c-.826 0-2.577-.157-2.602-.157l-1.222-.108a62.586 62.586 0 01-5.161-.662l-1.338-.232-.727-.108c-.462-.09-2.41-.521-2.849-.629-.437-.107-.76-.182-1.147-.281a63.147 63.147 0 01-2.114-.58l-.991-.298a47.66 47.66 0 01-2.04-.646l-1.239-.422a71.054 71.054 0 01-1.825-.663l13.618-9.936 22.189 14.722z" fill="#C6EBF4"/><path d="M38.905 61.621c-2.202 0-3.804-.662-4.806-1.987-1.002-1.325-1.514-3.414-1.536-6.268v-4.14c0-2.915.512-5.026 1.536-6.334 1.024-1.309 2.659-1.963 4.905-1.963a6.412 6.412 0 013.989 1.118 3.647 3.647 0 011.601 2.724.207.207 0 00.199.166h3.435a.206.206 0 00.206-.207 6.46 6.46 0 00-1.808-4.43c-1.619-1.822-4.228-2.733-7.828-2.733-3.337 0-5.864.977-7.581 2.932-1.718 1.954-2.574 4.868-2.569 8.743v4.919c0 3.588.86 6.29 2.577 8.106 1.718 1.816 4.247 2.727 7.589 2.733 4.03 0 6.807-1.143 8.332-3.428a8.182 8.182 0 001.066-2.112c.194-.76.291-1.542.288-2.326a.207.207 0 00-.198-.207h-3.501a.206.206 0 00-.198.165c-.537 2.766-2.387 4.53-5.698 4.53zm68.359-20.518a.198.198 0 00.198-.199v-3.138a.19.19 0 00-.121-.186.189.189 0 00-.077-.013h-5.781V31.15a.197.197 0 00-.198-.199l-3.518 1.077a.198.198 0 00-.198.199v5.34h-3.84a.198.198 0 00-.198.2v3.137a.199.199 0 00.198.199h3.84v16.56c0 2.286.512 3.959 1.536 5.018 1.024 1.06 2.673 1.601 4.947 1.623h3.22a.197.197 0 00.198-.198v-3.08a.195.195 0 00-.058-.141.196.196 0 00-.14-.058h-2.874a2.6 2.6 0 01-2.204-.828 4.845 4.845 0 01-.669-2.907V41.103h5.739zm-35.244 3.61a4.28 4.28 0 00-.174-1.002 8.908 8.908 0 00-1.71-3.212c-1.717-1.955-4.244-2.932-7.58-2.932-3.6 0-6.213.911-7.837 2.733a6.294 6.294 0 00-1.652 4.405.207.207 0 00.207.207h3.435a.206.206 0 00.198-.174 3.518 3.518 0 011.487-2.724 6.461 6.461 0 013.996-1.118c2.246 0 3.882.654 4.906 1.962.471.623.757 1.366.825 2.145v3.759a48.203 48.203 0 00-3.072-.298 40.55 40.55 0 00-2.527-.1c-3.605 0-6.25.68-7.935 2.038-1.685 1.358-2.527 3.513-2.527 6.467 0 2.76.8 4.772 2.403 6.036 1.412 1.093 4.376 1.656 7.366 1.822a15.04 15.04 0 002.362-.083 30.54 30.54 0 007.39-1.582.636.636 0 00.455-.588v-16.71c.024-.38.008-.736-.017-1.05zM58.32 60.72a3.07 3.07 0 01-1.892-1.805 5.743 5.743 0 01-.33-2.062c0-1.86.487-3.188 1.462-3.983.974-.795 2.736-1.192 5.284-1.192.554 0 3.849.281 5.08.422a.247.247 0 01.222.249v7.783a.266.266 0 01-.173.248 15.032 15.032 0 01-9.654.34zm72.264-16.007a4.212 4.212 0 00-.19-.969 8.9 8.9 0 00-1.709-3.212c-1.718-1.954-4.245-2.931-7.581-2.931-3.611 0-6.223.91-7.837 2.732a6.298 6.298 0 00-1.651 4.405.21.21 0 00.06.146c.039.04.092.061.146.061h3.436a.205.205 0 00.198-.174 3.515 3.515 0 011.486-2.724 6.446 6.446 0 013.997-1.118c2.246 0 3.881.654 4.905 1.962a4.07 4.07 0 01.826 2.145c0 .273.041.555.041.828v2.931a48.13 48.13 0 00-3.072-.298 40.765 40.765 0 00-2.535-.1c-3.6 0-6.243.68-7.927 2.038-1.685 1.358-2.525 3.513-2.519 6.467 0 2.76.801 4.772 2.403 6.036 1.412 1.093 4.377 1.656 7.366 1.822a15.02 15.02 0 002.362-.083c2.519-.22 5.002-.75 7.391-1.582a.635.635 0 00.454-.587V45.764a18.346 18.346 0 00-.05-1.052zm-13.7 16.006a3.071 3.071 0 01-1.891-1.805 5.741 5.741 0 01-.33-2.062c0-1.86.487-3.188 1.462-3.983.974-.795 2.736-1.192 5.285-1.192.553 0 3.848.281 5.078.422a.257.257 0 01.223.249v7.783a.277.277 0 01-.173.248 15.033 15.033 0 01-9.654.34zM90.195 41.401a.19.19 0 00.181-.19v-3.453c0-.663-4.533.356-4.954.488a6.763 6.763 0 00-4.493 3.445v-3.138a.216.216 0 00-.214-.216h-3.411a.214.214 0 00-.215.216v25.553a.224.224 0 00.215.223h3.518a.223.223 0 00.215-.223V49.789a11.302 11.302 0 01.99-4.885 5.791 5.791 0 012-2.407 5.77 5.77 0 012.955-1.013 17.944 17.944 0 012.304-.14l.909.057z" fill="#25314C"/><path d="M91.589 21.048C38.903 37.261 0 21.048 0 21.048L28.985 0c11 8.09 20.563 13.108 28.754 16.204.62.232 1.223.456 1.825.663l1.24.422c.693.232 1.37.456 2.039.646l.99.298c.72.207 1.421.406 2.115.58.388.1.768.199 1.148.281.38.083 3.36.729 3.617.779l1.337.232c1.809.306 3.527.521 5.162.662l1.222.108s1.775.124 2.601.157h.611c3.824.14 7.085 0 9.844 0l.099.016z" fill="#1B98ED"/></g><defs><clipPath id="clip0_306_3408"><path fill="#fff" d="M0 0h131v65H0z"/></clipPath></defs></svg>
